X: 1
T: Trip To Dublin, The
M: 4/4
L: 1/8
R: hornpipe
K: Amin
E2 | ABcd efec | dedB G2E2 | ABcd efec | d3e d2cB |
ABcd e^dec | dedB GBcd | ecdB cABG | A2AB A2 :|
|: cd | ec~c2 Gcec | dB~B2 GBdB | cAAG ABAG | E2ED E2cd | 
ec~c2 Gcec | dB~B2 GBcd | ecdB cABG | A2AB A2 :|
